/* XPM */
static char *_18fdf59a8144632f6750d5f8e693d6eG4dPfsFPmvjafbeM[] = {
/* columns rows colors chars-per-pixel */
"48 48 8 1 ",
"  c black",
". c #663931",
"X c red",
"o c #8F563B",
"O c #709999",
"+ c gray75",
"@ c #F5CBBD",
"# c white",
/* pixels */
"OO  OOO  OOOOOOOOOOOOOOOOOOOOOOOOOOOOOO  OOO  OO",
"O XX O XX OOOOOOOOOOOOOOOOOOOOOOOOOOOO XX O XX O",
" XXXX XXXX OOOOOOOOOOOOOOOOOOOOOOOOOO XXXX XXXX ",
" XXXXXXXXX OOOOOOOOOOOOOOOOOOOOOOOOOO XXXXXXXXX ",
" XXXXXXXXX OOOOOOOOOOOOOOOOOOOOOOOOOO XXXXXXXXX ",
"O XXXXXXX OOOOOOOO            OOOOOOOO XXXXXXX O",
"OO XXXXX OOOOOOOOO            OOOOOOOOO XXXXX OO",
"OOO XXX OOOOOOOOOO            OOOOOOOOOO XXX OOO",
"OOOO X OO                              OO X OOOO",
"OOOOO OOO                              OOO OOOOO",
"OOOOOOOOO                              OOOOOOOOO",
"OOOOOO                                    OOOOOO",
"OOOOOO                                    OOOOOO",
"OOOOOO                                    OOOOOO",
"OOOOOO      ++++++++++++++++++++++++      OOOOOO",
"OOOOOO      ++++++++++++++++++++++++      OOOOOO",
"OOOOOO      ++++++++++++++++++++++++      OOOOOO",
"OOO      +++###   ++++++++++++###   +++      OOO",
"OOO      +++###   ++++++++++++###   +++      OOO",
"OOO      +++###   ++++++++++++###   +++      OOO",
"OOO      +++      ++++++++++++      +++      OOO",
"OOO      +++      ++++++++++++      +++      OOO",
"OOO      +++      ++++++++++++      +++      OOO",
"OOO   ++++++++++++@@@@@@@@@@@@++++++++++++   OOO",
"OOO   ++++++++++++@@@@@@@@@@@@++++++++++++   OOO",
"OOO   ++++++++++++@@@@@@@@@@@@++++++++++++   OOO",
"OOO   +++############@@@@@@############+++   OOO",
"OOO   +++############@@@@@@############+++   OOO",
"OOO   +++############@@@@@@############+++   OOO",
"OOO      ##############################      OOO",
"OOO           #oooooooooooooooooo#           OOO",
"OOO            oo.oooo.oooo.ooo.o            OOO",
"OOO            oo..ooo.ooooo.o.oo            OOO",
"OOO            oo.oooo...oooo.ooo            OOO",
"OOOOOO        ooo.oooo.oo.oo.o.ooo        OOOOOO",
"OOOOOO   #####oooo...o.oo.o.ooo.oo#####   OOOOOO",
"OOOOOO   ######oooooooooooooooooo######   OOOOOO",
"OOOOOO   ##############################   OOOOOO",
"OOOOOOOOO                              OOOOOOOOO",
"OOOOOOOOO                              OOOOOOOOO",
"OOOOOOOOO                              OOOOOOOOO",
"OOOOOO@@@@@@@@@@@@OOOOOOOOOOOO@@@@@@@@@@@@OOOOOO",
"OOOOOO@@@@@@@@@@@@OOOOOOOOOOOO@@@@@@@@@@@@OOOOOO",
"OOOOOO@@@@@@@@@@@@OOOOOOOOOOOO@@@@@@@@@@@@OOOOOO",
"OOOOO+++++++++++++++++++++++++++++++++++++++OOOO",
"OOOOO+++++++++++++++++++++++++++++++++++++++OOOO",
"OOOOO+++++++++++++++++++++++++++++++++++++++OOOO",
"OOOOOOOOOOOOOOOOOOOOOOOOOOOOOOOOOOOOOOOOOOOOOOOO"
};
