/* XPM */
static char *_0b9616f0a9b4cc1adb9797dc4e29127vXnogIcXk6snOf9A[] = {
/* columns rows colors chars-per-pixel */
"32 32 12 1 ",
"  c #311C2A",
". c #482823",
"X c #45283C",
"o c #663931",
"O c #8F563B",
"+ c #83939C",
"@ c #9BADB7",
"# c #ADBBD7",
"$ c #DADADA",
"% c #CBDBFC",
"& c #F0F3F3",
"* c white",
/* pixels */
"********************************",
"**********************@*********",
"***********&&&&&*****@*@********",
"********&&&&&&&&&&&&&&&&********",
"******&&&&%&&&&&%&&&&&&&&&******",
"*****&&%%%%%%%%%%%&&&&&%&&&*****",
"*****&%%%OOOOOOOOO%%&&&%%O%*****",
"*****OOOOOOOOOOOOOOO%%%%OOo*****",
"*****OooooOoOOOoOOoOoooooOo*****",
"*****OoOOOOoOOOoOOOOOOoOOOo*****",
"*****OoOOOOOoOoOOOoOOOoOOOo*****",
"*****OooooOOOoOOOOoOOOoOOOo*****",
"*****OoOOOOOoOoOOOoOOOoOOOo*****",
"*****OoOOOOoOOOoOOoOOOoOOOo*****",
"*****OooooOoOOOoOOoOOOoOOOo*****",
"%****OOOOOOOOOOOOOOOOOOOOOo*****",
"*%***ooOOOOOOOOOOOOOOOOOOoo****%",
"%*****oooooooooooooooooooo******",
"***************XX***************",
"***************oX***************",
"***************oo***************",
"**********@$$$$..$$$$$**********",
"********$+$+$$$..$$$$$$$$*******",
"******$$$$+$$$$..$$$$$$$$$$*****",
"*****$$$$$$$$$$  $$$$$$$$#$*****",
"*****$$$$$$$$$$$$$$$$$$#$#$*****",
"******$$$$$$$$$$$$$$$$$#$#******",
"********$$$$$$$$$$$$$$$#$*******",
"***********$$$$$$$$$$$**********",
"*************%******************",
"************%*%*****************",
"*************%******************"
};
