/* XPM */
static char *_374c8664f5349b98580be5a7ce16c6eNgqhpDZSYQbzyGH0[] = {
/* columns rows colors chars-per-pixel */
"16 16 6 1 ",
"  c None",
". c black",
"X c #B9B9B9",
"o c #EDD0B1",
"O c #D9D9DB",
"+ c white",
/* pixels */
"                ",
"      ....      ",
"    ........    ",
"   ..........   ",
"   ..XXXXXX..   ",
"  ..X.+XX.+X..  ",
"  .XX..XX..XX.  ",
"  .XXXooooXXX.  ",
" ..X+++oo+++X.. ",
" ..++++++++++.. ",
" . .++++++++. . ",
"   .++++++++.   ",
"    ........    ",
"   ooo    ooo   ",
"  OOOOOOOOOOOO  ",
"                "
};
