/* XPM */
static char *_0ddb9d000354072c94e57349713ff33z9lrOF8c9WFaM5d0[] = {
/* columns rows colors chars-per-pixel */
"48 48 9 1 ",
"  c black",
". c #663931",
"X c red",
"o c #8F563B",
"O c #709999",
"+ c #B9B9B9",
"@ c #EDD0B1",
"# c #D9D9DB",
"$ c white",
/* pixels */
"OO  OOO  OOOOOOOOOOOOOOOOOOOOOOOOOOOOOO  OOO  OO",
"O XX O XX OOOOOOOOOOOOOOOOOOOOOOOOOOOO XX O XX O",
" XXXX XXXX OOOOOOOOOOOOOOOOOOOOOOOOOO XXXX XXXX ",
" XXXXXXXXX OOOOOOOOOOOOOOOOOOOOOOOOOO XXXXXXXXX ",
" XXXXXXXXX OOOOOOOOOOOOOOOOOOOOOOOOOO XXXXXXXXX ",
"O XXXXXXX OOOOOOOO            OOOOOOOO XXXXXXX O",
"OO XXXXX OOOOOOOOO            OOOOOOOOO XXXXX OO",
"OOO XXX OOOOOOOOOO            OOOOOOOOOO XXX OOO",
"OOOO X OO                              OO X OOOO",
"OOOOO OOO                              OOO OOOOO",
"OOOOOOOOO                              OOOOOOOOO",
"OOOOOO                                    OOOOOO",
"OOOOOO                                    OOOOOO",
"OOOOOO                                    OOOOOO",
"OOOOOO      ++++++++++++++++++++++++      OOOOOO",
"OOOOOO      ++++++++++++++++++++++++      OOOOOO",
"OOOOOO      ++++++++++++++++++++++++      OOOOOO",
"OOO      +++$$$   ++++++++++++$$$   +++      OOO",
"OOO      +++$$$   ++++++++++++$$$   +++      OOO",
"OOO      +++$$$   ++++++++++++$$$   +++      OOO",
"OOO      +++      ++++++++++++      +++      OOO",
"OOO      +++      ++++++++++++      +++      OOO",
"OOO      +++      ++++++++++++      +++      OOO",
"OOO   ++++++++++++@@@@@@@@@@@@++++++++++++   OOO",
"OOO   ++++++++++++@@@@@@@@@@@@++++++++++++   OOO",
"OOO   ++++++++++++@@@@@@@@@@@@++++++++++++   OOO",
"OOO   +++$$$$$$$$$$$$@@@@@@$$$$$$$$$$$$+++   OOO",
"OOO   +++$$$$$$$$$$$$@@@@@@$$$$$$$$$$$$+++   OOO",
"OOO   +++$$$$$$$$$$$$@@@@@@$$$$$$$$$$$$+++   OOO",
"OOO      $$$$$$$$$$$$$$$$$$$$$$$$$$$$$$      OOO",
"OOO           $oooooooooooooooooo$           OOO",
"OOO            oo.oooo.oooo.ooo.o            OOO",
"OOO            oo..ooo.ooooo.o.oo            OOO",
"OOO            oo.oooo...oooo.ooo            OOO",
"OOOOOO        ooo.oooo.oo.oo.o.ooo        OOOOOO",
"OOOOOO   $$$$$oooo...o.oo.o.ooo.oo$$$$$   OOOOOO",
"OOOOOO   $$$$$$oooooooooooooooooo$$$$$$   OOOOOO",
"OOOOOO   $$$$$$$$$$$$$$$$$$$$$$$$$$$$$$   OOOOOO",
"OOOOOOOOO                              OOOOOOOOO",
"OOOOOOOOO                              OOOOOOOOO",
"OOOOOOOOO                              OOOOOOOOO",
"OOOOOO@@@@@@@@@@@@OOOOOOOOOOOO@@@@@@@@@@@@OOOOOO",
"OOOOOO@@@@@@@@@@@@OOOOOOOOOOOO@@@@@@@@@@@@OOOOOO",
"OOOOOO@@@@@@@@@@@@OOOOOOOOOOOO@@@@@@@@@@@@OOOOOO",
"OOOOO#######################################OOOO",
"OOOOO#######################################OOOO",
"OOOOO#######################################OOOO",
"OOOOOOOOOOOOOOOOOOOOOOOOOOOOOOOOOOOOOOOOOOOOOOOO"
};
