/* XPM */
static char *_47a8c03cb4b48e1a7636300f6c07aa39KX59ykBDcPV4n7W[] = {
/* columns rows colors chars-per-pixel */
"32 32 5 1 ",
"  c black",
". c #9BADB7",
"X c gray75",
"o c #CBDBFC",
"O c white",
/* pixels */
"OOOOOOOOOOOOOOOOOOOOOOOOOOOOOOOO",
"OOOOOOOOOOOOOOOOOOOOOO.OOOOOOOOO",
"OOOOOOOOOOOOOOOOOOOOO.O.OOOOOOOO",
"OOOOOOOOOOOOOOOOOOOOOO.OOOOOOOOO",
"OOOOOOOOOOOOOOOOOOOOOOOOOOOOOOOO",
"OOOOOOOOO    OOOOOO    OOOOOOOOO",
"OOOOOOOOO    OOOOoO    OOOOOOOOO",
"OOOOOOO  XXXX  OO  XXXX  OOOOOOO",
"OOOOOOo  XXXX  OO  XXXX  OOOOOOO",
"OOOOO  XXXXXXXX  XXXXXXXX  OOOOO",
"OOOOO  XXXXXXXX  XXXXXXXX  OOOOO",
"OOOOO  XXXXXXXXXXXXXXXXXX  OOOOO",
"OOOOO  XXXXXXXXXXXXXXXXXX  OOOOO",
"OOOOO  XXXXXXXXXXXXXXXXXX  OOOOO",
"OOOOO  XXXXXXXXXXXXXXXXXX  OOOOO",
"oOOOOOO  XXXXXXXXXXXXXX  OOOOOOO",
"OoOOOOO  XXXXXXXXXXXXXX  OOOOOOo",
"oOOOOOOOO  XXXXXXXXXX  OOOOOOOOO",
"OOOOOOOOO  XXXXXXXXXX  OOOOOOOOO",
"OOOOOOOOOOO  XXXXXX  OOOOOOOOOOO",
"OOOOOOOOOOO  XXXXXX  OOOOOOOOOOO",
"OOOOOOOOOO.OO  XX  OOOOOOOOOOOOO",
"OOOOOOOOO.O.O  XX  OOOOOOOOOOOOO",
"OOOOOOOOOO.OOOO  OOOOOOOOOOOOOOO",
"OOOOOOOOOOOOOOO  OOOOOOOOoOOOOOO",
"OOOOOOOOOOOOOOOOOOOOOOOoOoOOOOOO",
"OOOOOOOOOOOOOOOOOOOOOOOoOoOOOOOO",
"OOOOOOOOOOOOOOOOOOOOOOOoOOOOOOOO",
"OOOOOOOOOOOOOOOOOOOOOOOOOOOOOOOO",
"OOOOOOOOOOOOOoOOOOOOOOOOOOOOOOOO",
"OOOOOOOOOOOOoOoOOOOOOOOOOOOOOOOO",
"OOOOOOOOOOOOOoOOOOOOOOOOOOOOOOOO"
};
