/* XPM */
static char *_a2cdcfd81d54e9cb9e20b1d1d6a7e73XgZ0im0wyOxNg3WI[] = {
/* columns rows colors chars-per-pixel */
"32 32 5 1 ",
"  c black",
". c red",
"X c #9BADB7",
"o c #CBDBFC",
"O c white",
/* pixels */
"OOOOOOOOOOOOOOOOOOOOOOOOOOOOOOOO",
"OOOOOOOOOOOOOOOOOOOOOOXOOOOOOOOO",
"OOOOOOOOOOOOOOOOOOOOOXOXOOOOOOOO",
"OOOOOOOOOOOOOOOOOOOOOOXOOOOOOOOO",
"OOOOOOOOOOOOOOOOOOOOOOOOOOOOOOOO",
"OOOOOOOOO    OOOOOO    OOOOOOOOO",
"OOOOOOOOO    OOOOoO    OOOOOOOOO",
"OOOOOOO  ....  OO  ....  OOOOOOO",
"OOOOOOo  ....  OO  ....  OOOOOOO",
"OOOOO  ........  ........  OOOOO",
"OOOOO  ........  ........  OOOOO",
"OOOOO  ..................  OOOOO",
"OOOOO  ..................  OOOOO",
"OOOOO  ..................  OOOOO",
"OOOOO  ..................  OOOOO",
"oOOOOOO  ..............  OOOOOOO",
"OoOOOOO  ..............  OOOOOOo",
"oOOOOOOOO  ..........  OOOOOOOOO",
"OOOOOOOOO  ..........  OOOOOOOOO",
"OOOOOOOOOOO  ......  OOOOOOOOOOO",
"OOOOOOOOOOO  ......  OOOOOOOOOOO",
"OOOOOOOOOOXOO  ..  OOOOOOOOOOOOO",
"OOOOOOOOOXOXO  ..  OOOOOOOOOOOOO",
"OOOOOOOOOOXOOOO  OOOOOOOOOOOOOOO",
"OOOOOOOOOOOOOOO  OOOOOOOOoOOOOOO",
"OOOOOOOOOOOOOOOOOOOOOOOoOoOOOOOO",
"OOOOOOOOOOOOOOOOOOOOOOOoOoOOOOOO",
"OOOOOOOOOOOOOOOOOOOOOOOoOOOOOOOO",
"OOOOOOOOOOOOOOOOOOOOOOOOOOOOOOOO",
"OOOOOOOOOOOOOoOOOOOOOOOOOOOOOOOO",
"OOOOOOOOOOOOoOoOOOOOOOOOOOOOOOOO",
"OOOOOOOOOOOOOoOOOOOOOOOOOOOOOOOO"
};
