/* XPM */
static char *_605f966adc94be7aefb458038253a0beC6s9P2a9oWRYain[] = {
/* columns rows colors chars-per-pixel */
"16 16 6 1 ",
"  c None",
". c black",
"X c gray75",
"o c #F5CBBD",
"O c #E6E6E6",
"+ c white",
/* pixels */
"                ",
"      ....      ",
"    ........    ",
"   ..........   ",
"   ..XXXXXX..   ",
"  ..X+.XX+.X..  ",
"  ..X..XX..X..  ",
"  .XXXooooXXX.  ",
" ..X+++oo+++X.. ",
" ..++++++++++.. ",
" . .++++++++. . ",
"   .++++++++.   ",
"    ........    ",
"   ooo    ooo   ",
"  OOOOOOOOOOOO  ",
"                "
};
