/* XPM */
static char *_997762b96f64a588133082b327a4723MR37lWdb3kkKzbq7[] = {
/* columns rows colors chars-per-pixel */
"130 40 2 1 ",
"  c #663931",
". c #8F563B",
/* pixels */
"................................................................................................................................. ",
"................................................................................................................................. ",
"................................................................................................................................. ",
"................................................................................................................................. ",
"................................................................................................................................. ",
"................................................................................................................................. ",
"................................................................................................................................. ",
"................................................................................................................................. ",
"................................................................................................................................. ",
"................................................................................................................................. ",
"................................................................................................................................. ",
"................................................................................................................................. ",
"................................................................................................................................. ",
"................................................................................................................................. ",
"................................................................................................................................. ",
"................................................................................................................................. ",
"................................................................................................................................. ",
"................................................................................................................................. ",
"................................................................................................................................. ",
"................................................................................................................................. ",
"................................................................................................................................. ",
"................................................................................................................................. ",
"................................................................................................................................. ",
"................................................................................................................................. ",
"................................................................................................................................. ",
"................................................................................................................................. ",
"................................................................................................................................. ",
"................................................................................................................................. ",
"................................................................................................................................. ",
"................................................................................................................................. ",
"................................................................................................................................. ",
"................................................................................................................................. ",
"................................................................................................................................. ",
"................................................................................................................................. ",
"................................................................................................................................. ",
"................................................................................................................................. ",
"................................................................................................................................. ",
"................................................................................................................................. ",
"................................................................................................................................  ",
"                                                                                                                                  "
};
