/* XPM */
static char *f4922d13df6e4d558ee909854ce75c48j9lX9AzK4SSLBHx7[] = {
/* columns rows colors chars-per-pixel */
"32 32 14 1 ",
"  c #311C2A",
". c #482823",
"X c #45283C",
"o c #663931",
"O c #9C0000",
"+ c #D70000",
"@ c #8F563B",
"# c #83939C",
"$ c #9BADB7",
"% c #ADBBD7",
"& c #DADADA",
"* c #CBDBFC",
"= c #F0F3F3",
"- c white",
/* pixels */
"--------------------------------",
"----------------------$---------",
"-----------=====-----$-$--------",
"--------================--------",
"------====*===============------",
"-----==*****==**=*******===-----",
"-----=***o@o**@o**o@oooo*==-----",
"-----@@o@@@@o@o@@@@@@@o@@**-----",
"-----@@ooo@@@o@@@@o@@@o@@@o-----",
"-----@@o@@@@o@o@@@o@@@o@@@o-----",
"-----@@ooo@o@@@o@@o@@@o@@@o-----",
"-----@@@@@@@@@@@@@@@@@@@@@o-----",
"-----@+@@+++@++@+@+@++@++@o-----",
"-----@+@@+@+@+@@+@+@+@@+@+o-----",
"-----@+@@+@+@+@@++@@++@+@+o-----",
"*----@+@@+@+@+@@+@+@+@@+@+o-----",
"-*---oO+@+++@++@+@+@++@++oo----*",
"*-----oooooooooooooooooooo------",
"---------------XX---------------",
"---------------oX---------------",
"---------------oo---------------",
"----------$&&&&..&&&&&----------",
"--------&#&#&&&..&&&&&&&&-------",
"------&&&&#&&&&..&&&&&&&&&&-----",
"-----&&&&&&&&&&  &&&&&&&&%&-----",
"-----&&&&&&&&&&&&&&&&&&%&%&-----",
"------&&&&&&&&&&&&&&&&&%&%------",
"--------&&&&&&&&&&&&&&&%&-------",
"-----------&&&&&&&&&&&----------",
"-------------*------------------",
"------------*-*-----------------",
"-------------*------------------"
};
