/* XPM */
static char *f7b1a9367caf40b9fa850f149b243a97dgEIu5YY2QI8Zcrb[] = {
/* columns rows colors chars-per-pixel */
"32 32 4 1 ",
"  c #43403E",
". c #595652",
"X c #696A6A",
"o c #847E87",
/* pixels */
"........ .................XX....",
"XXX..   .XXXXXooooooooXXXXXX.XXX",
"oXXXX. .XXooooooooooooooooooXXoo",
"ooXXX..XXXoooooooooooooooooooXoo",
"ooXXX..XXXoooooooooXoooooooooooo",
"ooXXX. .XXXoooooooXXoooooooooooo",
"XXX..   ..XXooooXXX.Xooooooooooo",
"... ................XXXXX.......",
"....XXXXXX....... ..............",
"ooooooooooooooXXX....   .XX..XXo",
"ooooooooooooooooooXXX. .XoXXXooo",
"oooooooooooooooooooXX..XooXXoooo",
"oooooooooooooooXoooXX..Xoooooooo",
"ooooooooooooooXXXoXX. .Xoooooooo",
"XXXooXXXoooXXXX.X...  ..XXXXXXXX",
".................  ...  ........",
"..        .........XXXX.........",
"XX....   .XXXXXooooooXXXXXXXXXXX",
"ooXXXX. .XXooooooooooooooooooooo",
"oooXXX..XXoooooooooooooooooooooo",
"ooooXX..XXooXXoooooooooXXXXXXooo",
"oooXX. ..XXXXooooooooooooXXooooo",
"XXX..   ....XXXXXXXXXooooooooooX",
"... .... .............XXXXXXX...",
"......XX............. .......  .",
"XXXX.XXXXXooooXXXXXXX...   ....X",
"oooXXXXoooooooooooooooXX. .XXXoo",
"ooooXooooooooooooooooooXX..XXooo",
"ooooooooooooooooooooooXXX..XXooo",
"ooooooooooooooooooooXXXXX. .XXoo",
"XXXXooooXXXXXXXXXXXXXXXX.   .XXX",
"....XXXX................  .. ..."
};
